svgs/my_citron.svg

<svg xmlns="http://www.w3.org/2000/svg" viewBox="0 0 192 192"><path d="M83.61 174.73c-29.535-7.967-50.003-37.509-51.674-74.585-2.132-47.321 29.547-86.637 67.701-84.022 27.293 1.871 50.062 24.304 58.359 57.497 2.659 10.635 2.921 32.061.524 42.82-3.867 17.361-10.632 30.006-22.356 41.789-9.028 9.074-16.876 13.764-27.589 16.487-6.711 1.706-18.668 1.713-24.965.014Zm26.874-7.862c7.687-2.645 14.707-7 20.562-12.756 4.819-4.738 12.022-14.303 12.022-15.965 0-.383-3.211-3.055-7.136-5.938-8.842-6.495-21.28-15.66-31.417-23.148-4.238-3.131-7.972-5.693-8.298-5.693-.326 0-5.974 3.944-12.551 8.765-6.578 4.82-15.896 11.641-20.707 15.158-4.811 3.517-9.979 7.396-11.483 8.622l-2.735 2.227 3.307 4.944c9.377 14.017 22.351 23.123 36.615 25.699 5.838 1.054 15.709.187 21.821-1.915Zm-39.748-63.011 25.419-18.962 25.495 19.04c14.022 10.472 26.095 19.083 26.828 19.135 1.256.09 3.736-6.864 3.781-10.603.01-.871-6.392-6.224-15.406-12.881a6440.003 6440.003 0 0 1-27.394-20.353c-6.584-4.929-12.528-8.974-13.211-8.988-1.023-.021-51.217 36.373-55.246 40.059-1.015.928-1.038 2.111-.128 6.537 1.32 6.422 1.637 7.055 3.228 6.444.668-.256 12.654-8.999 26.634-19.428ZM51.909 84.128c5.824-4.3 17.772-13.151 26.552-19.67 8.779-6.519 16.457-12.042 17.062-12.274.604-.232 13.687 8.894 29.073 20.28 15.386 11.387 28.312 20.494 28.725 20.239.413-.256.527-2.415.254-4.798-4.366-38.107-28.05-64.904-57.467-65.02-15.535-.061-30.52 7.905-41.079 21.837-5.132 6.772-11.62 20.05-13.632 27.9-1.535 5.992-3.231 19.458-2.538 20.152.556.555.851.36 13.05-8.646Z"/></svg>

<svg
    xmlns="http://www.w3.org/2000/svg"
    viewBox="0 0 192 192"
    id="vector">
    <g id="group">
        <path
            id="path_6"
            d="M 83.61 174.73 C 54.075 166.763 33.607 137.221 31.936 100.145 C 29.804 52.824 61.483 13.508 99.637 16.123 C 126.93 17.994 149.699 40.427 157.996 73.62 C 160.655 84.255 160.917 105.681 158.52 116.44 C 154.653 133.801 147.888 146.446 136.164 158.229 C 127.136 167.303 119.288 171.993 108.575 174.716 C 101.864 176.422 89.907 176.429 83.61 174.73 Z M 110.484 166.868 C 118.171 164.223 125.191 159.868 131.046 154.112 C 135.865 149.374 143.068 139.809 143.068 138.147 C 143.068 137.764 139.857 135.092 135.932 132.209 C 127.09 125.714 114.652 116.549 104.515 109.061 C 100.277 105.93 96.543 103.368 96.217 103.368 C 95.891 103.368 90.243 107.312 83.666 112.133 C 77.088 116.953 67.77 123.774 62.959 127.291 C 58.148 130.808 52.98 134.687 51.476 135.913 L 48.741 138.14 L 52.048 143.084 C 61.425 157.101 74.399 166.207 88.663 168.783 C 94.501 169.837 104.372 168.97 110.484 166.868 Z M 70.736 103.857 L 96.155 84.895 L 121.65 103.935 C 135.672 114.407 147.745 123.018 148.478 123.07 C 149.734 123.16 152.214 116.206 152.259 112.467 C 152.269 111.596 145.867 106.243 136.853 99.586 C 128.37 93.321 116.043 84.162 109.459 79.233 C 102.875 74.304 96.931 70.259 96.248 70.245 C 95.225 70.224 45.031 106.618 41.002 110.304 C 39.987 111.232 39.964 112.415 40.874 116.841 C 42.194 123.263 42.511 123.896 44.102 123.285 C 44.77 123.029 56.756 114.286 70.736 103.857 Z M 51.909 84.128 C 57.733 79.828 69.681 70.977 78.461 64.458 C 87.24 57.939 94.918 52.416 95.523 52.184 C 96.127 51.952 109.21 61.078 124.596 72.464 C 139.982 83.851 152.908 92.958 153.321 92.703 C 153.734 92.447 153.848 90.288 153.575 87.905 C 149.209 49.798 125.525 23.001 96.108 22.885 C 80.573 22.824 65.588 30.79 55.029 44.722 C 49.897 51.494 43.409 64.772 41.397 72.622 C 39.862 78.614 38.166 92.08 38.859 92.774 C 39.415 93.329 39.71 93.134 51.909 84.128 Z"
            fill="#000000"
            stroke-width="12"/>
    </g>
</svg>
